!!!COM:	Martini, Johannes
!!!CDT:	~1440///-~1497//
!!!OPR:	Missa Cela sans plus
!!!ONM:	2
!!!OTL:	Gloria
!!!AGN:	Mass; Gloria
!!!SCT:	Mar1001b
!!!SCA:	Mar1001b
!!!voices:	4
!!!voices-OPR:	4
**kern	**kern	**kern	**kern
*staff4	*staff3	*staff2	*staff1
*Ivox	*Ivox	*Ivox	*Ivox
*I"Bassus	*I"Tenor	*I"Altus	*I"Superius
*I'B	*I'T	*I'A	*I'S
*>[A,B]	*>[A,B]	*>[A,B]	*>[A,B]
*>A	*>A	*>A	*>A
*clefF4	*clefGv2	*clefGv2	*clefG2
*k[]	*k[]	*k[]	*k[]
*M2/1	*M2/1	*M2/1	*M2/1
*met(C)	*met(C)	*met(C)	*met(C)
!!section: Et in terra pax
!!!OMD: Et in terra pax
=1-	=1-	=1-	=1-
1.D	0r	0d	0r
[2F\	.	.	.
=2	=2	=2	=2
4F\]	0r	1c	0r
4E\	.	.	.
1A	.	.	.
.	.	1B	.
2G\	.	.	.
=3	=3	=3	=3
2A\	0r	2.A/	0r
2.F\	.	.	.
.	.	4G/	.
.	.	2A/	.
4E\	.	.	.
4D\	.	[2B\	.
4C/	.	.	.
=4	=4	=4	=4
2D\	0r	4B\]	0r
.	.	4A/	.
2AA/	.	1A	.
1BB	.	.	.
.	.	2G#i/	.
=5	=5	=5	=5
1AA	0r	1A	0r
2C/	.	2A/	.
2D\	.	2B\	.
=6	=6	=6	=6
2.E\	0r	2.c\	0r
4F\	.	4d\	.
2G\	.	2e\	.
[2A\	.	2f\	.
=7	=7	=7	=7
2A\]	0r	2e\	0r
4G\	.	1d	.
4F\	.	.	.
1E	.	.	.
.	.	2c#i\	.
=8	=8	=8	=8
2D\	0r	1d	0a
1F	.	.	.
.	.	2c\	.
2D\	.	2d\	.
=9	=9	=9	=9
2E\	0r	2B\	1g
2C/	.	2c\	.
1D	.	2.A/	1f
.	.	4B\	.
=10	=10	=10	=10
0AA	0A	0c	0e
=11	=11	=11	=11
1C	1G	1c	1e
1D	1F	2.A/	1f
.	.	4B\	.
=12	=12	=12	=12
1C	[0E	1c	1.g
1G	.	1B	.
.	.	.	2f/
=13	=13	=13	=13
1C	1E]	1c	1e
2BB/	[1G	2d\	2d/
[2C/	.	2c\	[2e/
=14	=14	=14	=14
2C/]	0G]	2e\	2e/]
2D\	.	2d\	2f/
1E	.	2B\	2.g/
.	.	2c\	.
.	.	.	4f/
=15	=15	=15	=15
0D	[0F	1.d	1a
.	.	.	2r
.	.	4c\	[2a/
.	.	4B\	.
=16	=16	=16	=16
1D	1F]	2.A/	2a/]
.	.	.	2d/
.	.	4B\	.
[1C	[1E	1c	2e/
.	.	.	[2g/
=17	=17	=17	=17
2C/]	0E]	1G	4g/]
.	.	.	4f/
2BB/	.	.	4e/
.	.	.	4d/
1AA	.	1A	2.c#i/
.	.	.	4B/
=18	=18	=18	=18
2r	0D	1F	0d
1A	.	.	.
.	.	1r	.
2F\	.	.	.
=19	=19	=19	=19
2G\	0r	1G	0r
2.E\	.	.	.
.	.	2G/	.
4D\	.	.	.
[2G\	.	2G/	.
=20	=20	=20	=20
2G\]	0r	2A/	1r
2F#i\	.	2A/	.
1G	.	1B	1g
=21	=21	=21	=21
2E\	0r	2B\	2g/
2G\	.	2B\	2g/
1F	.	2.c\	2a/
.	.	.	2a/
.	.	4B\	.
=22	=22	=22	=22
1.E	1G	2G/	1b
.	.	2.B\	.
.	2G/	.	1b
.	.	4c\	.
2D\	2G/	2d\	.
=23	=23	=23	=23
2.C/	2A/	2e\	1cc
.	2A/	2c\	.
4BB/	.	.	.
1GG	[1B	2.d\	2b\
.	.	.	[2dd\
.	.	4c\	.
=24	=24	=24	=24
1G	1B]	4B\	4dd\]
.	.	4A/	4cc\
.	.	2.G/	4b\
.	.	.	4a/
1E	1c	.	1g
.	.	4F/	.
.	.	2G/	.
=25	=25	=25	=25
1D	[0d	1A	1f
2G\	.	2B-i\	2g/
2F\	.	2A/	[2a/
=26	=26	=26	=26
2.D\	0d]	1F	4a/]
.	.	.	4g/
.	.	.	4f/
4C/	.	.	4e/
4BB/	.	1D	2f/
4AA/	.	.	.
2BB/	.	.	2d/
=27	=27	=27	=27
2GG/	1.d	2G/	2r
2r	.	2D/	2a/
2G\	.	2r	2b\
2A\	2c\	4F/	[2a/
.	.	4G/	.
=28	=28	=28	=28
2D\	2d\	2A/	4a/]
.	.	.	4g/
2G\	2B\	4B\	1g
.	.	4c\	.
1D	1A	[1d	.
.	.	.	2f#i/
=29	=29	=29	=29
[0GG	[0G	1d]	0g
.	.	[1d	.
=30	=30	=30	=30
0GG]	1G]	2d\]	1r
.	.	2c\	.
.	1r	1B	[1dd
=31	=31	=31	=31
0r	0r	1A	2dd\]
.	.	.	2cc\
.	.	2G/	2b\
.	.	[2A/	2a/
=32	=32	=32	=32
0r	0r	4A/]	1a
.	.	4G/	.
.	.	2F/	.
.	.	2E/	2g/
.	.	2F/	[2a/
=33	=33	=33	=33
0r	0r	2D/	4a/]
.	.	.	4g/
.	.	2.A/	2f/
.	.	.	1e
.	.	4B\	.
.	.	2c\	.
=34	=34	=34	=34
0r	0r	2.d\	2d/
.	.	.	2f/
.	.	4c\	.
.	.	2B\	2g/
.	.	2c\	[2a/
=35	=35	=35	=35
0r	0r	1A	4a/]
.	.	.	4b\
.	.	.	2.cc\
.	.	2.c\	.
.	.	.	4b\
.	.	.	[2g/
.	.	4B\	.
=36	=36	=36	=36
0r	0r	2.G/	4g/]
.	.	.	4f/
.	.	.	4e/
.	.	4F/	4d/
.	.	4E/	2g/
.	.	4D/	.
.	.	2d\	[2a/
=37	=37	=37	=37
0r	0r	2B\	4a/]
.	.	.	4g/
.	.	2G/	1g
.	.	1A	.
.	.	.	2f#i/
=38	=38	=38	=38
1.G	1.d	2.G/	0g
.	.	4A/	.
.	.	2B\	.
2C/	2c\	2c\	.
=39	=39	=39	=39
1G	1B	2d\	0r
.	.	1g	.
1D	1A	.	.
.	.	2f\	.
=40	=40	=40	=40
2E\	2G/	4g\	0r
.	.	4f\	.
2C/	1A	4e\	.
.	.	4d\	.
2D\	.	2f\	.
2E\	2G/	2e\	.
=41	=41	=41	=41
1D	1F	2A/	1d
.	.	1d	.
1AA	1E	.	1e
.	.	2c#i\	.
=42	=42	=42	=42
1D	2D/	1.d	1f
.	2.A/	.	.
2BB/	.	.	1g
.	4G/	.	.
2C/	[2G/	[2e\	.
=43	=43	=43	=43
1AA	2G/]	2e\]	1a
.	2F#i/	4d\	.
.	.	4c\	.
[1GG	1G	2B\	2d/
.	.	2G/	2e/
=44	=44	=44	=44
1GG]	0r	4G/	2d/
.	.	4A/	.
.	.	2B\	2g/
1r	.	2A/	2f/
.	.	4G/	[2d/
.	.	4F/	.
=45	=45	=45	=45
1G	0r	1E	2d/]
.	.	.	2c#i/
2B\	.	1D	1d
[2A\	.	.	.
=46	=46	=46	=46
2A\]	1r	2r	2c/
4G\	.	1d	2d/
4F\	.	.	.
1E	1G	.	2e/
.	.	2c\	2g/
=47	=47	=47	=47
2D\	1.A	2d\	1f
1F	.	2A/	.
.	.	1c	1r
2E\	2G/	.	.
=48	=48	=48	=48
2D\	1F	1d	1r
2A\	.	.	.
2G\	1E	1e	1g
2E\	.	.	.
=49	=49	=49	=49
2D\	0r	2.A/	1.a
2.F\	.	.	.
.	.	4B\	.
.	.	4c\	.
4E\	.	4d\	.
2C/	.	[2e\	2g/
=50	=50	=50	=50
1D	1r	2e\]	1f
.	.	2d\	.
2C/	[1G	2e\	1e
4BB/	.	[2g\	.
4AA/	.	.	.
=51	=51	=51	=51
4GG/	1G]	4g\]	0r
4AA/	.	4f\	.
4BB/	.	2e\	.
4C/	.	.	.
1D	1F	2d\	.
.	.	[2f\	.
=52	=52	=52	=52
1F	1D	4f\]	1r
.	.	4e\	.
.	.	1d	.
[1G	[1E	.	[1g
.	.	4c\	.
.	.	4B\	.
=53	=53	=53	=53
1G]	1E]	1c	1g]
1A	[1D	2d\	1f
.	.	[2A/	.
=54	=54	=54	=54
2.F\	1D]	2A/]	1d
.	.	2F/	.
4E\	.	.	.
2C/	1r	2G/	[1e
[2AA/	.	2A/	.
=55	=55	=55	=55
4AA/]	1A	2.E/	1e]
4BB/	.	.	.
2C/	.	.	.
.	.	4F/	.
2GG/	1B	2G/	1d
2G\	.	2B\	.
=56	=56	=56	=56
1F	2c\	2A/	1a
.	1A	2F/	.
1E	.	2.G/	1b
.	2G/	.	.
.	.	4F/	.
=57	=57	=57	=57
1AA	2A/	2E/	2cc\
.	2F/	2A/	1a
1E	2G/	2B\	.
.	2E/	2c\	2g/
=58	=58	=58	=58
2.F\	1D	2d\	2a/
.	.	2f\	2f/
4E\	.	.	.
1C	2r	2e\	2g/
.	2E/	2c\	2e/
=59	=59	=59	=59
1BB-	2F/	2d\	1d
.	2G/	2B-i\	.
1AA	[1A	1c	2r
.	.	.	2e/
=60	=60	=60	=60
0D	1A]	2.d\	2.f/
.	.	4c\	4g/
.	1F	2.A/	2.a/
.	.	4F/	4g/
=61	=61	=61	=61
2r	1D	2A/	4f/
.	.	.	4e/
2D\	.	2B\	2f/
2AA/	2C/	4c\	2e/
.	.	2A/	.
2BB-/	2D/	.	[2d/
.	.	4G/	.
=62	=62	=62	=62
1AA	1E	1A	2d/]
.	.	.	2c#i/
1Al	1Dl	1Al	1dl
!!LO:LB:i:g=z
=63||	=63||	=63||	=63||
*>B	*>B	*>B	*>B
*clefF4	*clefGv2	*clefGv2	*clefG2
*k[]	*k[]	*k[]	*k[]
*M2/1	*M2/1	*M2/1	*M2/1
*met(C|)	*met(C|)	*met(C|)	*met(C|)
!!section: Qui tollis
!!!OMD: Qui tollis
0r	0r	0r	1d
.	.	.	[1f
=64	=64	=64	=64
0r	0r	0r	2f/]
.	.	.	2g/
.	.	.	1a
=65	=65	=65	=65
1D	0r	0r	1d
[1F	.	.	[1a
=66	=66	=66	=66
2F\]	0r	0r	2a/]
2G\	.	.	4g/
.	.	.	4f/
1A	.	.	1e
=67	=67	=67	=67
1D	0r	0r	2d/
.	.	.	2f/
[1A	.	.	2e/
.	.	.	[2f/
=68	=68	=68	=68
2A\]	0r	0r	2f/]
4G\	.	.	4e/
4F\	.	.	4d/
1E	.	.	1c#i
=69	=69	=69	=69
0D	0r	0r	2d/
.	.	.	1f
.	.	.	4e/
.	.	.	4d/
=70	=70	=70	=70
1C	0r	0r	4e/
.	.	.	4d/
.	.	.	4c/
.	.	.	4B/
[1D	.	.	1A
=71	=71	=71	=71
2D\]	0r	0r	2r
1F	.	.	1d
4E\	.	.	4c/
4D\	.	.	4B/
=72	=72	=72	=72
4E\	0r	0r	2c/
4D\	.	.	.
4C/	.	.	2d/
4BB/	.	.	.
1AA	.	.	1e
=73	=73	=73	=73
2r	0r	0r	1A
1D	.	.	.
.	.	.	2B/
4C/	.	.	[2c/
4BB/	.	.	.
=74	=74	=74	=74
2C/	0r	0r	4c/]
.	.	.	4B/
2D\	.	.	1A
1E	.	.	.
.	.	.	2G/
=75	=75	=75	=75
1AA	0r	0r	2A/
.	.	.	2c/
2BB/	.	.	2d/
[2C/	.	.	[2e/
=76	=76	=76	=76
4C/]	0r	0r	4e/]
4BB/	.	.	4d/
1AA	.	.	2e/
.	.	.	2f/
2GG/	.	.	2g/
=77	=77	=77	=77
2AA/	0r	0r	1e
2C/	.	.	.
2D\	.	.	2f/
[2E\	.	.	[2g/
=78	=78	=78	=78
4E\]	0r	0r	4g/]
4D\	.	.	4f/
2E\	.	.	2g/
2F\	.	.	2a/
2G\	.	.	2d/
=79	=79	=79	=79
2E\	0r	0r	2.g/
2.G\	.	.	.
.	.	.	4f/
.	.	.	4e/
4F\	.	.	4d/
2G\	.	.	2e/
=80	=80	=80	=80
2A\	0r	0r	2A/
2D\	.	.	1d
1E	.	.	.
.	.	.	2c#i/
=81	=81	=81	=81
1.D	0r	0d	1d
.	.	.	1r
[2F\	.	.	.
=82	=82	=82	=82
4F\]	0r	1c	0r
4E\	.	.	.
1A	.	.	.
.	.	1B	.
2G\	.	.	.
=83	=83	=83	=83
2A\	0r	2.A/	0a
1F	.	.	.
.	.	4B\	.
.	.	2c\	.
2E\	.	2d\	.
=84	=84	=84	=84
1C	0r	2.e\	1g
.	.	4f\	.
1D	.	[1d	1f
=85	=85	=85	=85
1AA	0A	2d\]	2.e/
.	.	4c#i\	.
.	.	4B\	4f/
1r	.	1c#i	2g/
.	.	.	2a/
=86	=86	=86	=86
0r	1G	1d	2.b\
.	.	.	4cc\
.	1F	1A	[1a
=87	=87	=87	=87
0r	0E	0B	2a/]
.	.	.	4g#i/
.	.	.	4f#i/
.	.	.	1g#i
=88	=88	=88	=88
1AA	0r	1.A	1a
1D	.	.	1f
.	.	2B\	.
=89	=89	=89	=89
1C	[0G	1c	1e
2BB/	.	2.g\	2d/
[2C/	.	.	[2e/
.	.	4f\	.
=90	=90	=90	=90
2C/]	0G]	4e\	2e/]
.	.	4d\	.
2D\	.	1d	2f/
1E	.	.	1g
.	.	2c#i\	.
=91	=91	=91	=91
1D	0F	1d	1a
1F	.	1A	1d
=92	=92	=92	=92
1G	[0E	1B	2r
.	.	.	2.e/
1C	.	[1c	.
.	.	.	4f/
.	.	.	[2g/
=93	=93	=93	=93
1r	0E]	2c\]	4g/]
.	.	.	4f/
.	.	4B\	4e/
.	.	4A/	4d/
1E	.	1G	2.c#i/
.	.	.	4B/
=94	=94	=94	=94
2F\	[0D	1A	0d
2.D\	.	.	.
.	.	2F/	.
4C/	.	.	.
[2GG/	.	[2G/	.
=95	=95	=95	=95
4GG/]	0D]	2G/]	0r
4AA/	.	.	.
4BB/	.	4F/	.
4C/	.	4E/	.
1D	.	2F/	.
.	.	4E/	.
.	.	4D/	.
=96	=96	=96	=96
2E\	0r	2C/	0g
1C	.	2.E/	.
.	.	4F/	.
4BB/	.	2G/	.
4AA/	.	.	.
=97	=97	=97	=97
1BB	0r	2D/	1g
.	.	1G	.
1AA	.	.	1a
.	.	2F#i/	.
=98	=98	=98	=98
1GG	0r	0G	1b
2C/	.	.	2g/
2BB/	.	.	[2b\
=99	=99	=99	=99
2GG/	0r	1G	4b\]
.	.	.	4cc\
2BB/	.	.	1dd
1AA	.	1A	.
.	.	.	2cc\
=100	=100	=100	=100
2GG/	0r	1B	2dd\
2.G\	.	.	2.b\
.	.	2G/	.
4F\	.	.	4a/
4E\	.	[2B\	[2g/
4D\	.	.	.
=101	=101	=101	=101
2E\	0r	4B\]	2g/]
.	.	4c\	.
2D\	.	1d	2f/
1A	.	.	1e
.	.	2c#i\	.
=102	=102	=102	=102
2D\	0r	2d\	1d
2.G\	.	2.B\	.
.	.	.	2.G/
4F\	.	4A/	.
[2E\	.	[2G/	.
.	.	.	4A/
=103	=103	=103	=103
2E\]	0r	2G/]	4B/
.	.	.	4c/
2D\	.	2F/	2d/
2C/	.	1E	2e/
2AA/	.	.	2c/
=104	=104	=104	=104
2BB/	0r	2D/	1d
2GG/	.	2.G/	.
2r	.	.	1g
.	.	4A/	.
2G\	.	4B\	.
.	.	4c\	.
=105	=105	=105	=105
2D\	0r	2d\	2f/
2C/	.	2e\	2g/
2F\	.	2c\	2a/
2D\	.	[2d\	[2b\
=106	=106	=106	=106
1G	0r	2d\]	4b\]
.	.	.	4a/
.	.	4c\	1g
.	.	4B\	.
1D	.	1A	.
.	.	.	2f#i/
=107	=107	=107	=107
2.GG/	[0G	1G	1g
4AA/	.	.	.
2BB/	.	1r	2d/
[2C/	.	.	[2e/
=108	=108	=108	=108
4C/]	0G]	0r	4e/]
4D\	.	.	4f/
2.E\	.	.	2g/
.	.	.	2a/
4D\	.	.	.
[2G\	.	.	2b\
=109	=109	=109	=109
2G\]	0A	0r	2a/
4F\	.	.	1cc
4E\	.	.	.
1F	.	.	.
.	.	.	4b\
.	.	.	4a/
=110	=110	=110	=110
0r	1B	1.G	2.g/
.	.	.	4a/
.	[1d	.	2b\
.	.	2D/	[2a/
=111	=111	=111	=111
0r	1d]	2F/	2a/]
.	.	2G/	4g/
.	.	.	4f/
.	1c#i	1A	1e
=112	=112	=112	=112
2.F\	0d	2.D/	1d
4G\	.	4E/	.
2A\	.	2F/	1r
[2B-i\	.	[2G/	.
=113	=113	=113	=113
4B-\]	1d	4G/]	0r
4A\	.	4A/	.
2.G\	.	4B\	.
.	.	4c\	.
.	1B	2d\	.
4F\	.	.	.
[2E\	.	[2g\	.
=114	=114	=114	=114
2E\]	1c	2g\]	0r
4D\	.	4f#i\	.
4C/	.	4e\	.
1D	1A	1f#i	.
=115	=115	=115	=115
1.GG	0G	1g	0r
.	.	1d	.
[2G\	.	.	.
=116	=116	=116	=116
2G\]	0r	1.d	0r
2F\	.	.	.
2G\	.	.	.
[2A\	.	2c\	.
=117	=117	=117	=117
4A\]	0r	2B\	0r
4G\	.	.	.
1G	.	2G/	.
.	.	1A	.
2F\	.	.	.
=118	=118	=118	=118
2G\	0r	2G/	1.dd
1D	.	2A/	.
.	.	2B\	.
2F\	.	[2A/	2cc\
=119	=119	=119	=119
2G\	0r	4A/]	2b\
.	.	4G/	.
2E\	.	1G	2g/
1D	.	.	1a
.	.	2F/	.
=120	=120	=120	=120
1GG	1.d	2G/	2g/
.	.	1D	2a/
1r	.	.	2b\
.	2c\	2F/	[2a/
=121	=121	=121	=121
0r	2B\	2G/	4a/]
.	.	.	4g/
.	2G/	2E/	1g
.	1A	1D	.
.	.	.	2f#i/
=122	=122	=122	=122
1GG	2G/	1r	1g
.	2A/	.	.
1D	2B\	1d	1r
.	[2A/	.	.
=123	=123	=123	=123
2C/	4A/]	1e	0r
.	4G/	.	.
2BB/	1G	.	.
1AA	.	1c	.
.	2F#i/	.	.
=124	=124	=124	=124
0GG	0G	0B	1r
.	.	.	1g
=125	=125	=125	=125
0D	0r	1A	1a
.	.	1d	1f
=126	=126	=126	=126
1AA	1r	2c\	0e
.	.	2A/	.
1E	1G	1B	.
=127	=127	=127	=127
1AA	1A	2c\	1r
.	.	1A	.
1D	1F	.	1d
.	.	2B\	.
=128	=128	=128	=128
1r	0E	2c\	1e
.	.	2d\	.
1G	.	1e	1g
=129	=129	=129	=129
1A	1r	1c	1f
1F	1D	1d	1a
=130	=130	=130	=130
1E	1E	1G	1g
1C	1G	1c	2f/
.	.	.	[2e/
=131	=131	=131	=131
1D	1F	2B\	2e/]
.	.	1A	2d/
1BB	1D	.	[1d
.	.	2G/	.
=132	=132	=132	=132
0AA	0E	0A	2d/]
.	.	.	4c#i/
.	.	.	4B/
.	.	.	1c#i
=133	=133	=133	=133
*M3/1	*M3/1	*M3/1	*M3/1
*met(3)	*met(3)	*met(3)	*met(3)
0A	0.D	0F	0d
[1F	.	1F	[1a
=134	=134	=134	=134
1F]	0.r	1A	1a]
1E	.	1B	1g
1D	.	1d	1f
=135	=135	=135	=135
0AA	0A	0c	0e
1r	1G	1B	1r
=136	=136	=136	=136
1A	1F	1A	1d
1G	0E	1B	1e
1E	.	1c	1g
=137	=137	=137	=137
1.D	0.r	1.d	0f
2E\	.	2c\	.
1F	.	1A	1d
=138	=138	=138	=138
0C	0G	0c	0e
1D	1F	1A	1d
=139	=139	=139	=139
1C	1G	1c	1e
1BB	1D	1d	1.f
[1D	[1F	1A	.
.	.	.	2e/
=140	=140	=140	=140
1D]	1F]	1B	0d
0AA	0E	1.A	.
.	.	.	1c#i
.	.	2G/	.
=141	=141	=141	=141
0F	0.D	0A	0.d
1D	.	1r	.
=142	=142	=142	=142
1E	0.r	0G	0.r
1.C	.	.	.
.	.	1A	.
2BB/	.	.	.
=143	=143	=143	=143
0GG	0.r	0B	0g
1r	.	1c	1a
=144	=144	=144	=144
0GG	0.r	0d	0b
1AA	.	1c	1cc
=145	=145	=145	=145
0BB	0G	1B	0dd
.	.	1G	.
1C	1A	1E	1r
=146	=146	=146	=146
0D	0B	0F	0d
1E	1c	1G	1g
=147	=147	=147	=147
1.D	[0.d	0A	1.f
2E\	.	.	2g/
1F	.	1A	1a
=148	=148	=148	=148
1G	0d]	1G	1b
1D	.	0A	1.a
1F	1c	.	.
.	.	.	2g/
=149	=149	=149	=149
1G	1B	0d	0g
0D	0A	.	.
.	.	1d	1f#i
=150	=150	=150	=150
0.GG	0.G	0B	0.g
.	.	1d	.
=151	=151	=151	=151
0AA	0.r	1c	1r
.	.	1A	1r
1GG	.	1B	1dd
=152	=152	=152	=152
1AA	1r	0A	1cc
1C	1r	.	1a
1GG	1d	1G	1b
=153	=153	=153	=153
0AA	1c	0E	0a
.	1A	.	.
1D	1B	1r	1d
=154	=154	=154	=154
1C	0A	0c	1e
1AA	.	.	1f
1BB	1G	1B	1g
=155	=155	=155	=155
0AA	0A	1c	1.e
.	.	1.e	.
.	.	.	2f/
1r	1G	.	1g
.	.	2d\	.
=156	=156	=156	=156
0.r	1F	0d	1a
.	0E	.	1b
.	.	1c#i	1cc
=157	=157	=157	=157
0D	0D	0d	0f
1E	1C	1r	1e
=158	=158	=158	=158
1D	1D	0A	1f
1C	1E	.	1.e
1D	1F	[1B-i	.
.	.	.	2d/
=159	=159	=159	=159
1GG	1G	1B-]	0d
0AA	0E	0A	.
.	.	.	1c#i
=160	=160	=160	=160
0A	0.D	0F	0.d
1F	.	1D	.
=161	=161	=161	=161
0D	0A	0F	0.r
1E	1G	1G	.
=162	=162	=162	=162
1F	1A	1D	0.r
1E	1c	1E	.
[1D	1d	1F	.
=163	=163	=163	=163
2D\]	1B	1D	0.r
2C/	.	.	.
1D	1.A	1r	.
1BB	.	1d	.
.	2G/	.	.
=164	=164	=164	=164
1C	0G	0e	0.r
0AA	.	.	.
.	1F#i	1c	.
=165	=165	=165	=165
0.GG	0.G	0B	1r
.	.	.	1r
.	.	1G	1g
=166	=166	=166	=166
0D	0.r	1.F	0a
.	.	2G/	.
1D	.	2A/	1f
.	.	2B\	.
=167	=167	=167	=167
1.C	1r	0c	1e
.	1r	.	1f
2D\	.	.	.
1E	1G	1B	1g
=168	=168	=168	=168
0AA	0A	0c	1e
.	.	.	1r
1D	1F	1A	1d
=169	=169	=169	=169
0C	0.E	0c	0g
1G	.	1B	1e
=170	=170	=170	=170
0A	1r	1.c	1f
.	1r	.	1e
.	.	2B\	.
1F	1D	1A	1d
=171	=171	=171	=171
0E	0G	0B	1.e
.	.	.	2d/
1AA	1E	1c	2c/
.	.	.	2B/
=172	=172	=172	=172
0D	0F	0d	1.A
.	.	.	2B/
1C	1E	1A	1c
=173	=173	=173	=173
1BB-	1D	1B-i	1d
1AA	1C	1c	1.e
[1BB-i	[1D	1F	.
.	.	.	2d/
=174	=174	=174	=174
1BB-]	1D]	1G	0d
0AA	0E	0A	.
.	.	.	1c#i
=175	=175	=175	=175
0.Al	0.Dl	0.Al	0.dl
==	==	==	==
*-	*-	*-	*-
!!!RDF**kern: l=long note in original notation
!!!RDF**kern: i=editorial accidental
!!!ENC:	Chris Gage 10-23-2013
!!!END:	2013/10/25/
!!!EED:	Jesse Rodin
!!!EEV:	2014/01/03/
!!!ONB:	Translated from MusicXML and edited on 2014/01/03/ by Craig Sapp
!!muse2ps: T^@{OPR}^u^@{ONM}{. }@{OTL}^C^@{COM}^i2I150v85,85,85,150Q16
